; Generated by Launchpad3D
; Wed Dec 01 2021 08:04:09 GMT-0800 (Pacific Standard Time)
; Bed left:0 right:153 top:153 bottom:0
; --- process ---
; processName = Orbit Fast
; sliceHeight = 0.3
; sliceShells = 2
; sliceShellSpacing = 1
; sliceFillAngle = 45
; sliceFillOverlap = 0.3
; sliceFillSparse = 0.1
; sliceSupportEnable = false
; sliceSupportDensity = 0.25
; sliceSupportOffset = 1
; sliceSupportGap = 1
; sliceSupportSize = 10
; sliceSupportArea = 1
; sliceSupportExtra = 0
; sliceSupportSpan = 6
; sliceSolidMinArea = 7
; sliceSolidLayers = 7
; sliceBottomLayers = 2
; sliceTopLayers = 5
; firstSliceHeight = 0.25
; firstLayerRate = 20
; firstLayerFillRate = 20
; firstLayerPrintMult = 1
; outputRaft = true
; outputRaftSpacing = 0.14
; outputTemp = 205
; outputFanMax = 255
; outputBedTemp = 0
; outputFeedrate = 50
; outputFinishrate = 35
; outputSeekrate = 60
; outputShellMult = 1.3
; outputFillMult = 1.2
; outputSparseMult = 1.3
; outputRetractDist = 1
; outputRetractSpeed = 30
; outputRetractDwell = 0
; outputBrimCount = 0
; outputBrimOffset = 0
; outputShortPoly = 10
; sliceMinHeight = 0
; antiBacklash = 2
; zHopDistance = 1
; gcodePauseLayers = NaN
; outputCooling = true
; outputClockwise = true
; outputOriginCenter = false
; outputInvertX = false
; outputInvertY = false
; firstLayerNozzleTemp = 0
; gcodeNozzle = 0
; --- startup ---
M82                 ; absolute extrusion mode
G28                 ; home axes
M104 S205        ; set nozzle temp
M107                ; turn off filament cooling fan
G1 Z0.200 F2000     ; move bed to .2mm
G92 E0              ; zero out extruder position
G1 F200 E4          ; prime extruder 5mm
 ; retract 1
G1 E3 F1800
 ; zhop up
G1 Z1.000 F3600
; --- layer 0 (0.600 @ 0.00) ---
M725 S0
G1 Z0.600
G1 X134.568 Y134.579
 ; zhop down
G1 Z0.600
 ; engage 1
G1 E4 F1800
G1 X134.568 Y16.979 E40.868 F400
G1 X16.968 Y16.979 E77.735
G1 X16.968 Y134.579 E114.603
G1 X134.568 Y134.579 E151.471
 ; retract 1
G1 E150.471 F1800
 ; zhop up
G1 Z1.600 F3600
G1 X136.368 Y24.878
G1 X134.368 Y26.878
 ; zhop down
G1 Z0.600
 ; engage 1
G1 E151.471 F1800
G1 X124.669 Y17.179 E155.771 F400
 ; retract 1
G1 E154.771 F1800
 ; zhop up
G1 Z1.600 F3600
G1 X116.769 Y15.179
G1 X114.769 Y17.179
 ; zhop down
G1 Z0.600
 ; engage 1
G1 E155.771 F1800
G1 X134.368 Y36.778 E164.46 F400
 ; retract 1
G1 E163.46 F1800
 ; zhop up
G1 Z1.600 F3600
G1 X136.368 Y44.677
G1 X134.368 Y46.677
 ; zhop down
G1 Z0.600
 ; engage 1
G1 E164.46 F1800
G1 X104.870 Y17.179 E177.539 F400
 ; retract 1
G1 E176.539 F1800
 ; zhop up
G1 Z1.600 F3600
G1 X96.970 Y15.179
G1 X94.970 Y17.179
 ; zhop down
G1 Z0.600
 ; engage 1
G1 E177.539 F1800
G1 X134.368 Y56.577 E195.006 F400
 ; retract 1
G1 E194.006 F1800
 ; zhop up
G1 Z1.600 F3600
G1 X136.368 Y64.476
G1 X134.368 Y66.476
 ; zhop down
G1 Z0.600
 ; engage 1
G1 E195.006 F1800
G1 X85.071 Y17.179 E216.863 F400
 ; retract 1
G1 E215.863 F1800
 ; zhop up
G1 Z1.600 F3600
G1 X77.171 Y15.179
G1 X75.171 Y17.179
 ; zhop down
G1 Z0.600
 ; engage 1
G1 E216.863 F1800
G1 X134.368 Y76.376 E243.108 F400
 ; retract 1
G1 E242.108 F1800
 ; zhop up
G1 Z1.600 F3600
G1 X136.368 Y84.275
G1 X134.368 Y86.275
 ; zhop down
G1 Z0.600
 ; engage 1
G1 E243.108 F1800
G1 X65.272 Y17.179 E273.742 F400
 ; retract 1
G1 E272.742 F1800
 ; zhop up
G1 Z1.600 F3600
G1 X57.372 Y15.179
G1 X55.372 Y17.179
 ; zhop down
G1 Z0.600
 ; engage 1
G1 E273.742 F1800
G1 X134.368 Y96.175 E308.766 F400
 ; retract 1
G1 E307.766 F1800
 ; zhop up
G1 Z1.600 F3600
G1 X136.368 Y104.074
G1 X134.368 Y106.074
 ; zhop down
G1 Z0.600
 ; engage 1
G1 E308.766 F1800
G1 X45.473 Y17.179 E348.178 F400
 ; retract 1
G1 E347.178 F1800
 ; zhop up
G1 Z1.600 F3600
G1 X37.573 Y15.179
G1 X35.573 Y17.179
 ; zhop down
G1 Z0.600
 ; engage 1
G1 E348.178 F1800
G1 X134.368 Y115.974 E391.98 F400
 ; retract 1
G1 E390.98 F1800
 ; zhop up
G1 Z1.600 F3600
G1 X136.368 Y123.873
G1 X134.368 Y125.873
 ; zhop down
G1 Z0.600
 ; engage 1
G1 E391.98 F1800
G1 X25.674 Y17.179 E440.17 F400
 ; retract 1
G1 E439.17 F1800
 ; zhop up
G1 Z1.600 F3600
G1 X19.168 Y16.573
G1 X17.168 Y18.573
 ; zhop down
G1 Z0.600
 ; engage 1
G1 E440.17 F1800
G1 X132.974 Y134.379 E491.513 F400
 ; retract 1
G1 E490.513 F1800
 ; zhop up
G1 Z1.600 F3600
G1 X125.075 Y132.379
G1 X123.075 Y134.379
 ; zhop down
G1 Z0.600
 ; engage 1
G1 E491.513 F1800
G1 X17.168 Y28.472 E538.468 F400
 ; retract 1
G1 E537.468 F1800
 ; zhop up
G1 Z1.600 F3600
G1 X19.168 Y36.372
G1 X17.168 Y38.372
 ; zhop down
G1 Z0.600
 ; engage 1
G1 E538.468 F1800
G1 X113.175 Y134.379 E581.033 F400
 ; retract 1
G1 E580.033 F1800
 ; zhop up
G1 Z1.600 F3600
G1 X105.276 Y132.379
G1 X103.276 Y134.379
 ; zhop down
G1 Z0.600
 ; engage 1
G1 E581.033 F1800
G1 X17.168 Y48.271 E619.21 F400
 ; retract 1
G1 E618.21 F1800
 ; zhop up
G1 Z1.600 F3600
G1 X19.168 Y56.171
G1 X17.168 Y58.171
 ; zhop down
G1 Z0.600
 ; engage 1
G1 E619.21 F1800
G1 X93.376 Y134.379 E652.997 F400
 ; retract 1
G1 E651.997 F1800
 ; zhop up
G1 Z1.600 F3600
G1 X85.477 Y132.379
G1 X83.477 Y134.379
 ; zhop down
G1 Z0.600
 ; engage 1
G1 E652.997 F1800
G1 X17.168 Y68.070 E682.395 F400
 ; retract 1
G1 E681.395 F1800
 ; zhop up
G1 Z1.600 F3600
G1 X19.168 Y75.970
G1 X17.168 Y77.970
 ; zhop down
G1 Z0.600
 ; engage 1
G1 E682.395 F1800
G1 X73.577 Y134.379 E707.405 F400
 ; retract 1
G1 E706.405 F1800
 ; zhop up
G1 Z1.600 F3600
G1 X65.678 Y132.379
G1 X63.678 Y134.379
 ; zhop down
G1 Z0.600
 ; engage 1
G1 E707.405 F1800
G1 X17.168 Y87.869 E728.025 F400
 ; retract 1
G1 E727.025 F1800
 ; zhop up
G1 Z1.600 F3600
G1 X19.168 Y95.769
G1 X17.168 Y97.769
 ; zhop down
G1 Z0.600
 ; engage 1
G1 E728.025 F1800
G1 X53.778 Y134.379 E744.257 F400
 ; retract 1
G1 E743.257 F1800
 ; zhop up
G1 Z1.600 F3600
G1 X45.879 Y132.379
G1 X43.879 Y134.379
 ; zhop down
G1 Z0.600
 ; engage 1
G1 E744.257 F1800
G1 X17.168 Y107.668 E756.099 F400
 ; retract 1
G1 E755.099 F1800
 ; zhop up
G1 Z1.600 F3600
G1 X19.168 Y115.568
G1 X17.168 Y117.568
 ; zhop down
G1 Z0.600
 ; engage 1
G1 E756.099 F1800
G1 X33.979 Y134.379 E763.552 F400
 ; retract 1
G1 E762.552 F1800
 ; zhop up
G1 Z1.600 F3600
G1 X26.080 Y132.379
G1 X24.080 Y134.379
 ; zhop down
G1 Z0.600
 ; engage 1
G1 E763.552 F1800
G1 X17.168 Y127.467 E766.616 F400
; --- layer 1 (0.377 @ 0.60) ---
M725 S0
M106 S255
G1 Z0.977 F3600
G1 X17.168 Y127.467
G1 X16.968 Y134.579
G1 X134.568 Y134.579 E772.413 F600
G1 X134.568 Y16.979 E778.209
G1 X16.968 Y16.979 E784.005
G1 X16.968 Y134.579 E789.801
 ; retract 1
G1 E788.801 F1800
 ; zhop up
G1 Z1.977 F3600
G1 X20.835 Y15.179
G1 X18.835 Y17.179
 ; zhop down
G1 Z0.977
 ; engage 1
G1 E789.801 F1800
G1 X17.168 Y18.846 E789.918 F600
G1 X17.168 Y20.712 F3600
G1 X20.702 Y17.179 E790.164 F600
G1 X22.568 Y17.179 F3600
G1 X17.168 Y22.579 E790.54 F600
G1 X17.168 Y24.446 F3600
G1 X24.435 Y17.179 E791.047 F600
G1 X26.302 Y17.179 F3600
G1 X17.168 Y26.313 E791.683 F600
G1 X17.168 Y28.180 F3600
G1 X28.169 Y17.179 E792.45 F600
G1 X30.036 Y17.179 F3600
G1 X17.168 Y30.046 E793.347 F600
G1 X17.168 Y31.913 F3600
G1 X31.902 Y17.179 E794.374 F600
G1 X33.769 Y17.179 F3600
G1 X17.168 Y33.780 E795.531 F600
G1 X17.168 Y35.647 F3600
G1 X35.636 Y17.179 E796.819 F600
G1 X37.503 Y17.179 F3600
G1 X17.168 Y37.513 E798.236 F600
G1 X17.168 Y39.380 F3600
G1 X39.369 Y17.179 E799.783 F600
G1 X41.236 Y17.179 F3600
G1 X17.168 Y41.247 E801.461 F600
G1 X17.168 Y43.114 F3600
G1 X43.103 Y17.179 E803.269 F600
G1 X44.970 Y17.179 F3600
G1 X17.168 Y44.980 E805.207 F600
G1 X17.168 Y46.847 F3600
G1 X46.836 Y17.179 E807.275 F600
G1 X48.703 Y17.179 F3600
G1 X17.168 Y48.714 E809.473 F600
G1 X17.168 Y50.581 F3600
G1 X50.570 Y17.179 E811.801 F600
G1 X52.437 Y17.179 F3600
G1 X17.168 Y52.447 E814.259 F600
G1 X17.168 Y54.314 F3600
G1 X54.303 Y17.179 E816.848 F600
G1 X56.170 Y17.179 F3600
G1 X17.168 Y56.181 E819.566 F600
G1 X17.168 Y58.048 F3600
G1 X58.037 Y17.179 E822.415 F600
G1 X59.904 Y17.179 F3600
G1 X17.168 Y59.914 E825.394 F600
G1 X17.168 Y61.781 F3600
G1 X61.770 Y17.179 E828.503 F600
G1 X63.637 Y17.179 F3600
G1 X17.168 Y63.648 E831.742 F600
G1 X17.168 Y65.515 F3600
G1 X65.504 Y17.179 E835.111 F600
G1 X67.371 Y17.179 F3600
G1 X17.168 Y67.382 E838.61 F600
G1 X17.168 Y69.248 F3600
G1 X69.238 Y17.179 E842.24 F600
G1 X71.104 Y17.179 F3600
G1 X17.168 Y71.115 E845.999 F600
G1 X17.168 Y72.982 F3600
G1 X72.971 Y17.179 E849.889 F600
G1 X74.838 Y17.179 F3600
G1 X17.168 Y74.849 E853.908 F600
G1 X17.168 Y76.715 F3600
G1 X76.705 Y17.179 E858.058 F600
G1 X78.571 Y17.179 F3600
G1 X17.168 Y78.582 E862.338 F600
G1 X17.168 Y80.449 F3600
G1 X80.438 Y17.179 E866.748 F600
G1 X82.305 Y17.179 F3600
G1 X17.168 Y82.316 E871.289 F600
G1 X17.168 Y84.182 F3600
G1 X84.172 Y17.179 E875.959 F600
G1 X86.038 Y17.179 F3600
G1 X17.168 Y86.049 E880.76 F600
G1 X17.168 Y87.916 F3600
G1 X87.905 Y17.179 E885.69 F600
G1 X89.772 Y17.179 F3600
G1 X17.168 Y89.783 E890.751 F600
G1 X17.168 Y91.649 F3600
G1 X91.639 Y17.179 E895.942 F600
G1 X93.505 Y17.179 F3600
G1 X17.168 Y93.516 E901.263 F600
G1 X17.168 Y95.383 F3600
G1 X95.372 Y17.179 E906.714 F600
G1 X97.239 Y17.179 F3600
G1 X17.168 Y97.250 E912.295 F600
G1 X17.168 Y99.116 F3600
G1 X99.106 Y17.179 E918.006 F600
G1 X100.972 Y17.179 F3600
G1 X17.168 Y100.983 E923.848 F600
G1 X17.168 Y102.850 F3600
G1 X102.839 Y17.179 E929.819 F600
G1 X104.706 Y17.179 F3600
G1 X17.168 Y104.717 E935.921 F600
G1 X17.168 Y106.584 F3600
G1 X106.573 Y17.179 E942.153 F600
G1 X108.440 Y17.179 F3600
G1 X17.168 Y108.450 E948.515 F600
G1 X17.168 Y110.317 F3600
G1 X110.306 Y17.179 E955.007 F600
G1 X112.173 Y17.179 F3600
G1 X17.168 Y112.184 E961.629 F600
G1 X17.168 Y114.051 F3600
G1 X114.040 Y17.179 E968.381 F600
G1 X115.907 Y17.179 F3600
G1 X17.168 Y115.917 E975.263 F600
G1 X17.168 Y117.784 F3600
G1 X117.773 Y17.179 E982.276 F600
G1 X119.640 Y17.179 F3600
G1 X17.168 Y119.651 E989.418 F600
G1 X17.168 Y121.518 F3600
G1 X121.507 Y17.179 E996.691 F600
G1 X123.374 Y17.179 F3600
G1 X17.168 Y123.384 E1004.094 F600
G1 X17.168 Y125.251 F3600
G1 X125.240 Y17.179 E1011.627 F600
G1 X127.107 Y17.179 F3600
G1 X17.168 Y127.118 E1019.29 F600
G1 X17.168 Y128.985 F3600
G1 X128.974 Y17.179 E1027.083 F600
G1 X130.841 Y17.179 F3600
G1 X17.168 Y130.851 E1035.007 F600
G1 X17.168 Y132.718 F3600
G1 X132.707 Y17.179 E1043.06 F600
G1 X134.368 Y17.385 F3600
G1 X17.374 Y134.379 E1051.215 F600
G1 X19.241 Y134.379 F3600
G1 X134.368 Y19.252 E1059.24 F600
G1 X134.368 Y21.118 F3600
G1 X21.108 Y134.379 E1067.134 F600
G1 X22.974 Y134.379 F3600
G1 X134.368 Y22.985 E1074.899 F600
G1 X134.368 Y24.852 F3600
G1 X24.841 Y134.379 E1082.533 F600
G1 X26.708 Y134.379 F3600
G1 X134.368 Y26.719 E1090.038 F600
G1 X134.368 Y28.586 F3600
G1 X28.575 Y134.379 E1097.412 F600
G1 X30.442 Y134.379 F3600
G1 X134.368 Y30.452 E1104.656 F600
G1 X134.368 Y32.319 F3600
G1 X32.308 Y134.379 E1111.77 F600
G1 X34.175 Y134.379 F3600
G1 X134.368 Y34.186 E1118.753 F600
G1 X134.368 Y36.053 F3600
G1 X36.042 Y134.379 E1125.607 F600
G1 X37.909 Y134.379 F3600
G1 X134.368 Y37.919 E1132.331 F600
G1 X134.368 Y39.786 F3600
G1 X39.775 Y134.379 E1138.924 F600
G1 X41.642 Y134.379 F3600
G1 X134.368 Y41.653 E1145.387 F600
G1 X134.368 Y43.520 F3600
G1 X43.509 Y134.379 E1151.721 F600
G1 X45.376 Y134.379 F3600
G1 X134.368 Y45.386 E1157.924 F600
G1 X134.368 Y47.253 F3600
G1 X47.242 Y134.379 E1163.997 F600
G1 X49.109 Y134.379 F3600
G1 X134.368 Y49.120 E1169.939 F600
G1 X134.368 Y50.987 F3600
G1 X50.976 Y134.379 E1175.752 F600
G1 X52.843 Y134.379 F3600
G1 X134.368 Y52.853 E1181.435 F600
G1 X134.368 Y54.720 F3600
G1 X54.709 Y134.379 E1186.987 F600
G1 X56.576 Y134.379 F3600
G1 X134.368 Y56.587 E1192.41 F600
G1 X134.368 Y58.454 F3600
G1 X58.443 Y134.379 E1197.702 F600
G1 X60.310 Y134.379 F3600
G1 X134.368 Y60.320 E1202.864 F600
G1 X134.368 Y62.187 F3600
G1 X62.176 Y134.379 E1207.896 F600
G1 X64.043 Y134.379 F3600
G1 X134.368 Y64.054 E1212.798 F600
G1 X134.368 Y65.921 F3600
G1 X65.910 Y134.379 E1217.57 F600
G1 X67.777 Y134.379 F3600
G1 X134.368 Y67.788 E1222.211 F600
G1 X134.368 Y69.654 F3600
G1 X69.644 Y134.379 E1226.723 F600
G1 X71.510 Y134.379 F3600
G1 X134.368 Y71.521 E1231.104 F600
G1 X134.368 Y73.388 F3600
G1 X73.377 Y134.379 E1235.355 F600
G1 X75.244 Y134.379 F3600
G1 X134.368 Y75.255 E1239.477 F600
G1 X134.368 Y77.121 F3600
G1 X77.111 Y134.379 E1243.468 F600
G1 X78.977 Y134.379 F3600
G1 X134.368 Y78.988 E1247.329 F600
G1 X134.368 Y80.855 F3600
G1 X80.844 Y134.379 E1251.059 F600
G1 X82.711 Y134.379 F3600
G1 X134.368 Y82.722 E1254.66 F600
G1 X134.368 Y84.588 F3600
G1 X84.578 Y134.379 E1258.131 F600
G1 X86.444 Y134.379 F3600
G1 X134.368 Y86.455 E1261.471 F600
G1 X134.368 Y88.322 F3600
G1 X88.311 Y134.379 E1264.681 F600
G1 X90.178 Y134.379 F3600
G1 X134.368 Y90.189 E1267.762 F600
G1 X134.368 Y92.055 F3600
G1 X92.045 Y134.379 E1270.712 F600
G1 X93.911 Y134.379 F3600
G1 X134.368 Y93.922 E1273.532 F600
G1 X134.368 Y95.789 F3600
G1 X95.778 Y134.379 E1276.221 F600
G1 X97.645 Y134.379 F3600
G1 X134.368 Y97.656 E1278.781 F600
G1 X134.368 Y99.522 F3600
G1 X99.512 Y134.379 E1281.211 F600
G1 X101.378 Y134.379 F3600
G1 X134.368 Y101.389 E1283.51 F600
G1 X134.368 Y103.256 F3600
G1 X103.245 Y134.379 E1285.68 F600
G1 X105.112 Y134.379 F3600
G1 X134.368 Y105.123 E1287.719 F600
G1 X134.368 Y106.990 F3600
G1 X106.979 Y134.379 E1289.628 F600
G1 X108.846 Y134.379 F3600
G1 X134.368 Y108.856 E1291.407 F600
G1 X134.368 Y110.723 F3600
G1 X110.712 Y134.379 E1293.056 F600
G1 X112.579 Y134.379 F3600
G1 X134.368 Y112.590 E1294.575 F600
G1 X134.368 Y114.457 F3600
G1 X114.446 Y134.379 E1295.963 F600
G1 X116.313 Y134.379 F3600
G1 X134.368 Y116.323 E1297.222 F600
G1 X134.368 Y118.190 F3600
G1 X118.179 Y134.379 E1298.35 F600
G1 X120.046 Y134.379 F3600
G1 X134.368 Y120.057 E1299.349 F600
G1 X134.368 Y121.924 F3600
G1 X121.913 Y134.379 E1300.217 F600
G1 X123.780 Y134.379 F3600
G1 X134.368 Y123.790 E1300.955 F600
G1 X134.368 Y125.657 F3600
G1 X125.646 Y134.379 E1301.563 F600
G1 X127.513 Y134.379 F3600
G1 X134.368 Y127.524 E1302.041 F600
G1 X134.368 Y129.391 F3600
G1 X129.380 Y134.379 E1302.388 F600
G1 X131.247 Y134.379 F3600
G1 X134.368 Y131.257 E1302.606 F600
G1 X134.368 Y133.124 F3600
G1 X133.113 Y134.379 E1302.693 F600
; --- layer 2 (0.377 @ 0.98) ---
M725 S1
G1 Z1.355 F3600
G1 X133.113 Y134.379
G1 X134.568 Y134.579
G1 X134.568 Y16.979 E1308.49 F3000
G1 X16.968 Y16.979 E1314.286
G1 X16.968 Y134.579 E1320.082
G1 X134.568 Y134.579 E1325.878
 ; retract 1
G1 E1324.878 F1800
 ; zhop up
G1 Z2.355 F3600
G1 X20.835 Y15.179
G1 X18.835 Y17.179
 ; zhop down
G1 Z1.355
 ; engage 1
G1 E1325.878 F1800
G1 X17.168 Y18.846 E1325.994 F3000
G1 X17.168 Y20.712 F3600
G1 X20.702 Y17.179 E1326.241 F3000
G1 X22.568 Y17.179 F3600
G1 X17.168 Y22.579 E1326.617 F3000
G1 X17.168 Y24.446 F3600
G1 X24.435 Y17.179 E1327.124 F3000
G1 X26.302 Y17.179 F3600
G1 X17.168 Y26.313 E1327.76 F3000
G1 X17.168 Y28.180 F3600
G1 X28.169 Y17.179 E1328.527 F3000
G1 X30.036 Y17.179 F3600
G1 X17.168 Y30.046 E1329.424 F3000
G1 X17.168 Y31.913 F3600
G1 X31.902 Y17.179 E1330.451 F3000
G1 X33.769 Y17.179 F3600
G1 X17.168 Y33.780 E1331.608 F3000
G1 X17.168 Y35.647 F3600
G1 X35.636 Y17.179 E1332.895 F3000
G1 X37.503 Y17.179 F3600
G1 X17.168 Y37.513 E1334.313 F3000
G1 X17.168 Y39.380 F3600
G1 X39.369 Y17.179 E1335.86 F3000
G1 X41.236 Y17.179 F3600
G1 X17.168 Y41.247 E1337.538 F3000
G1 X17.168 Y43.114 F3600
G1 X43.103 Y17.179 E1339.346 F3000
G1 X44.970 Y17.179 F3600
G1 X17.168 Y44.980 E1341.283 F3000
G1 X17.168 Y46.847 F3600
G1 X46.836 Y17.179 E1343.351 F3000
G1 X48.703 Y17.179 F3600
G1 X17.168 Y48.714 E1345.55 F3000
G1 X17.168 Y50.581 F3600
G1 X50.570 Y17.179 E1347.878 F3000
G1 X52.437 Y17.179 F3600
G1 X17.168 Y52.447 E1350.336 F3000
G1 X17.168 Y54.314 F3600
G1 X54.303 Y17.179 E1352.925 F3000
G1 X56.170 Y17.179 F3600
G1 X17.168 Y56.181 E1355.643 F3000
G1 X17.168 Y58.048 F3600
G1 X58.037 Y17.179 E1358.492 F3000
G1 X59.904 Y17.179 F3600
G1 X17.168 Y59.914 E1361.471 F3000
G1 X17.168 Y61.781 F3600
G1 X61.770 Y17.179 E1364.58 F3000
G1 X63.637 Y17.179 F3600
G1 X17.168 Y63.648 E1367.819 F3000
G1 X17.168 Y65.515 F3600
G1 X65.504 Y17.179 E1371.188 F3000
G1 X67.371 Y17.179 F3600
G1 X17.168 Y67.382 E1374.687 F3000
